X:166
T: Short and Sweet
N: O'Farrell's Pocket Companion v.2 (Sky ed. p.83-4)
M: C
L: 1/8
R: hornpipe % ?
Q: 240
K: G
A|BcBc d>edB|cAGF G>AG>d|ecge eddB|cBAF G2G :|
P:2
z|FAAA GBBB|cAdB g/f/e/d/ c/B/A/G/|FAAA GBBB|cAGF G2G :|
P:3
z|BcBc d2d2|ef a/g/f/e/ eddc|BcBc dedB|cAdB G2G :|
P:4
z|d/e/d/c/ BG dBgB|d/c/B/c/ AF AFcA|d/e/d/c/ Bg eg dg|
cAGF G2G :|
